X: 1
T: Jackson's Morning Brush
M: 6/8
L: 1/8
S: learned from David Kidd
R: Jig
Z: Lorna LaVerne <Muse1950:aol.com>
K: D
|: DFE EFE | DFA AFA | BAB def | ~g3 ecA \
|  DFE EFE | DFA AFA | BAB d2e | fdc d2 :|
|: g \
|  fed faf | ede fdB | AFA def | ~g3 e2g \
|  fed faf | ede fdB | AFA d2e | fdc d2 :|
